registrations/twitter-outline.svg

<svg xmlns="http://www.w3.org/2000/svg" viewBox="0 0 16 16"><defs><style>.cls-1{fill:#231f20}</style></defs><title>twitter-outline</title><path class="cls-1" d="M15.535 2.824a1.178 1.178 0 0 0-.437-1.09 1.257 1.257 0 0 0-1.365-.107 4.417 4.417 0 0 1-.847.366 4.12 4.12 0 0 0-2.318-.717A3.949 3.949 0 0 0 6.675 4.32a6.741 6.741 0 0 1-3.566-2.14 1.2 1.2 0 0 0-1.02-.42 1.218 1.218 0 0 0-.942.571A3.687 3.687 0 0 0 .6 4.265a3.645 3.645 0 0 0 .192 1.176 1.212 1.212 0 0 0-.216.711 3.713 3.713 0 0 0 .975 2.5 1.184 1.184 0 0 0 .055.49 3.765 3.765 0 0 0 .8 1.353 4.746 4.746 0 0 1-1.023 0 1.217 1.217 0 0 0-1.283.783 1.187 1.187 0 0 0 .5 1.409 9.353 9.353 0 0 0 4.87 1.357 8.809 8.809 0 0 0 9.065-8.41 6.588 6.588 0 0 0 1.129-1.219 1.159 1.159 0 0 0 .247-.719 1.181 1.181 0 0 0-.376-.872zm-2.205 2.23c.005.112.008.226.008.339a7.6 7.6 0 0 1-7.858 7.46 8.123 8.123 0 0 1-4.233-1.179 5.66 5.66 0 0 0 .658.037 5.729 5.729 0 0 0 3.431-1.123 2.747 2.747 0 0 1-2.58-1.82A2.9 2.9 0 0 0 4 8.723a2.661 2.661 0 0 1-2.213-2.571v-.033a2.864 2.864 0 0 0 1.252.328A2.589 2.589 0 0 1 1.81 4.265a2.5 2.5 0 0 1 .374-1.317 7.994 7.994 0 0 0 5.692 2.739 2.5 2.5 0 0 1-.072-.6 2.7 2.7 0 0 1 2.763-2.622 2.827 2.827 0 0 1 2.016.829 5.736 5.736 0 0 0 1.753-.636 2.66 2.66 0 0 1-1.214 1.45 5.763 5.763 0 0 0 1.586-.408 5.485 5.485 0 0 1-1.378 1.354z" id="Layer_1" data-name="Layer 1"/></svg>

<svg xmlns="http://www.w3.org/2000/svg" viewBox="0 0 16 16"><defs><style>.cls-1{fill:#231f20;}</style></defs><title>twitter-outline</title><g id="Layer_1" data-name="Layer 1"><path class="cls-1" d="M15.535,2.824a1.178,1.178,0,0,0-.437-1.09,1.257,1.257,0,0,0-1.365-.107,4.417,4.417,0,0,1-.847.366,4.12,4.12,0,0,0-2.318-.717A3.949,3.949,0,0,0,6.675,4.32,6.741,6.741,0,0,1,3.109,2.18a1.2,1.2,0,0,0-1.02-.42,1.218,1.218,0,0,0-.942.571A3.687,3.687,0,0,0,.6,4.265,3.645,3.645,0,0,0,.792,5.441a1.212,1.212,0,0,0-.216.711,3.713,3.713,0,0,0,.975,2.5,1.184,1.184,0,0,0,.055.49,3.765,3.765,0,0,0,.8,1.353,4.746,4.746,0,0,1-1.023,0A1.217,1.217,0,0,0,.1,11.278a1.187,1.187,0,0,0,.5,1.409,9.353,9.353,0,0,0,4.87,1.357,8.809,8.809,0,0,0,9.065-8.41,6.588,6.588,0,0,0,1.129-1.219,1.159,1.159,0,0,0,.247-.719A1.181,1.181,0,0,0,15.535,2.824ZM13.33,5.054c.005.112.008.226.008.339A7.6,7.6,0,0,1,5.48,12.853a8.123,8.123,0,0,1-4.233-1.179,5.66,5.66,0,0,0,.658.037,5.729,5.729,0,0,0,3.431-1.123,2.747,2.747,0,0,1-2.58-1.82A2.9,2.9,0,0,0,4,8.723,2.661,2.661,0,0,1,1.787,6.152V6.119a2.864,2.864,0,0,0,1.252.328A2.589,2.589,0,0,1,1.81,4.265a2.5,2.5,0,0,1,.374-1.317A7.994,7.994,0,0,0,7.876,5.687a2.5,2.5,0,0,1-.072-.6,2.7,2.7,0,0,1,2.763-2.622,2.827,2.827,0,0,1,2.016.829,5.736,5.736,0,0,0,1.753-.636,2.66,2.66,0,0,1-1.214,1.45A5.763,5.763,0,0,0,14.708,3.7,5.485,5.485,0,0,1,13.33,5.054Z"/></g></svg>
